assets/icons/functional/maps&travel/police-car.svg

<svg width="32" height="32" viewBox="0 0 32 32" fill="none" xmlns="http://www.w3.org/2000/svg"><g id="Icon-PoliceCar"><g clip-path="url(#clip0_10_1486)"><g id="size=md (32px)"><g id="PoliceCar"><path id="Vector" d="M2 15H30" stroke="#101828" stroke-width="2" stroke-linecap="round" stroke-linejoin="round"/><path id="Vector_2" d="M28 23V26C28 26.2652 27.8946 26.5196 27.7071 26.7071C27.5196 26.8946 27.2652 27 27 27H24C23.7348 27 23.4804 26.8946 23.2929 26.7071C23.1054 26.5196 23 26.2652 23 26V23" stroke="#101828" stroke-width="2" stroke-linecap="round" stroke-linejoin="round"/><path id="Vector_3" d="M9 23V26C9 26.2652 8.89464 26.5196 8.70711 26.7071C8.51957 26.8946 8.26522 27 8 27H5C4.73478 27 4.48043 26.8946 4.29289 26.7071C4.10536 26.5196 4 26.2652 4 26V23" stroke="#101828" stroke-width="2" stroke-linecap="round" stroke-linejoin="round"/><path id="Vector_4" d="M8 19H10" stroke="#101828" stroke-width="2" stroke-linecap="round" stroke-linejoin="round"/><path id="Vector_5" d="M22 19H24" stroke="#101828" stroke-width="2" stroke-linecap="round" stroke-linejoin="round"/><path id="Vector_6" d="M28 15L24.2875 8.50001C24.201 8.34765 24.0755 8.22104 23.924 8.13317C23.7724 8.04531 23.6002 7.99935 23.425 8.00001H8.575C8.39981 7.99935 8.22759 8.04531 8.07602 8.13317C7.92445 8.22104 7.79899 8.34765 7.7125 8.50001L4 15V23H28V15Z" stroke="#101828" stroke-width="2" stroke-linecap="round" stroke-linejoin="round"/><path id="Vector_7" d="M13 4H19" stroke="#101828" stroke-width="2" stroke-linecap="round" stroke-linejoin="round"/></g></g></g></g><defs><clipPath id="clip0_10_1486"><rect width="32" height="32" rx="5" fill="white"/></clipPath></defs></svg>

<svg xmlns="http://www.w3.org/2000/svg" width="32" height="32" fill="none"><path stroke="#101828" stroke-linecap="round" stroke-linejoin="round" stroke-width="2" d="M2 15h28m-2 8v3a1 1 0 0 1-1 1h-3a1 1 0 0 1-1-1v-3M9 23v3a1 1 0 0 1-1 1H5a1 1 0 0 1-1-1v-3m4-4h2m12 0h2"/><path stroke="#101828" stroke-linecap="round" stroke-linejoin="round" stroke-width="2" d="m28 15-3.712-6.5a.988.988 0 0 0-.863-.5H8.575a.988.988 0 0 0-.862.5L4 15v8h24v-8ZM13 4h6"/></svg>
